X:1
T:Title
%%score { ( 1 3 ) | ( 2 4 ) }
L:1/8
M:6/8
K:Bb
V:1 treble nm="Grand Piano"
V:3 treble 
V:2 bass 
V:4 bass 
V:1
 z3 z2[Q:1/4=90] D | D[CE][_D=E] [=DF][_DG][CA] | [B,B][CA][_DG] [=DF]2 F | z c2- c2 z | %4
[M:5/8] z B- B3 |[M:1/8] D |[M:3/4] D[CE] [_D=E][=DF] [_DG][CA] | [B,B][CA] [_DG] [=DF]2 [Fd] | %8
 [Fc] [A,F]2 [=B,FA]2 [_B,=EG] | [A,F]6 | d4 z2 | c4 z2 | [DF][DG] [DA][DB] [DF][DG] | [EA]3 c3 | %14
 e4 z2 | d4 z2 | FG _A=A Bc | [Dd]6[K:bass] | c4 z2 | c4 z2 | [DF][DG] [DA][FB] [Fc][Fd] | %21
 [Gf]3 [Ge]3 | e4 z2 | d4 z2 | %24
 AG Fe dc[Q:1/4=89][Q:1/4=87][Q:1/4=86][Q:1/4=85][Q:1/4=83][Q:1/4=82][Q:1/4=81][Q:1/4=79][Q:1/4=78][Q:1/4=77][Q:1/4=75] | %25
[M:5/8] [DB]-[DB]- [DB]3[Q:1/4=74][Q:1/4=73][Q:1/4=71][Q:1/4=70][Q:1/4=69] |] %26
V:2
 z3 z2 [B,,B,] | [B,,B,][B,,A,][B,,G,] [B,,F,][B,,=E,][B,,_E,] | [B,,D,][B,,E,][B,,=E,] .[B,,F,]3 | %3
 z2 [F,B,] [F,A,]<[F,A,] z |[M:5/8] z2 [B,,G,] [B,,F,]<[B,,F,] |[M:1/8] [B,,B,] | %6
[M:3/4] [B,,B,][B,,A,] [B,,G,][B,,F,] [B,,=E,][B,,_E,] | %7
 [B,,D,][B,,E,] [B,,=E,] [B,,F,]2 [=B,,_A,] | [C,A,] D,2 G,,2 C, | z2 z E3 | %10
 [B,,F,][B,,F,] [B,,F,] [B,,F,]3 | [B,,F,][B,,F,] [B,,F,] [B,,F,]2 [B,,F,] | %12
 [B,,F,][B,,F,] [B,,F,][B,,F,] [B,,B,][B,,G,] | [C,F,]3 [F,A,E]3 | [F,A,E][F,A,] [F,A,] [F,_A,D]3 | %15
 [F,A,E][F,A,] [F,A,] [F,A,E]2 [F,CE] | [F,A,E][F,B,E] [F,=B,E][F,CE] [F,G,E][F,A,E] | .B,2 z2 z2 | %18
 [B,,F,][B,,F,] [B,,F,] [B,,F,]3 | [B,,F,][B,,F,] [B,,F,] [B,,F,]2 [B,,F,] | %20
 [B,,F,][B,,F,] [B,,F,][D,B,] [D,B,][D,B,] | [G,=B,]3 [C,C]3 | [C,C][C,C] [C,C] [D,G,]3 | %23
 [E,G,E][E,G,] [E,G,] [E,G,E]2 [C,C] | [F,CE][F,B,E] [F,A,E][F,G] [F,G,F][F,A,E] | %25
[M:5/8] [B,,B,]-[B,,B,]- [B,,B,]3 |] %26
V:3
 x6 | x6 | x6 | .F2 =E _E<EF |[M:5/8] F z E D<D |[M:1/8] x |[M:3/4] x6 | x6 | x6 | x6 | %10
 DD D [DA]3 | DD D [DB]2 D | x6 | x6 | z E E =B3 | z E E c2 A | x6 | z[K:bass] A, G, .F,3 | %18
 DD D [DA]3 | DD D [DB]2 D | x6 | x6 | GG G [F=B]3 | z E E c2 [EG] | x6 |[M:5/8] x5 |] %26
V:4
 x6 | x6 | x6 | x6 |[M:5/8] x5 |[M:1/8] x |[M:3/4] x6 | x6 | x6 | F,6 | x6 | x6 | x6 | x6 | x6 | %15
 x6 | x6 | B,,6 | x6 | x6 | x6 | x6 | x6 | x6 | x6 |[M:5/8] x5 |] %26

